X:260
T:Kentucky Mandolin
C:Bill Monroe - Arr. Baldassari
N: 
R:bluegrass
L:1/8
Q:1/4=195
M:4/4
K:C
DG _Bd gf dc | _B4 D4 | ^F4 G4 | [d6G6] D2 |: "Gm"FG GG G2 _Bc | c2 cd c_B G2 | 
FG GG G2 GA | _BA B"D7"c d2 D2 | "Gm"FG GG G2 _Bc | c2 cd c_B G2 | ^cd dd d2 cd | 
"D7"_BG2[GG,] "Gm"[G2G,2] G2 :|: "Gm"fg g2 g2 fg | g2 g_b gf d2 | "F"ef fg fd c2 | 
ag fa gf d2 | "Gm"fg g2 g2 fg | g2 g_b gf d2 | ef fg fd _BA | "D7"c_B AF "Gm"G4 :| "Gm"FG GG G2 _Bc | 
c2 cd c_B G2 | FG GG G2 GA | _BA B"D7"c d2 D2 | "Gm"FG GG G2 _Bc | c2 cd cd G2 | 
dc _Bd cB cB | "D7"A_B AF "Gm"GF D2 | FG GG G2 _Bc | c2 cd c_B G2 | FG GG G2 [G2G,2] | 
_Bc ^c2 "D7"d4 | "Gm"FG GG G2 _Bc | c2 cd c_B G2 | ^cd dd d2 cd | "D7"_BG2[GG,] "Gm"[G2G,2] [G2G,2] | 
"Gm"fg g2 g2 fg | g2 g_b gf d2 | "F"ef f2 f2 fg | ag fa gf d2 | "Gm"fg g2 g2 fg | 
g2 g_b gf d2 | ef fg fd _BA | "D7"c_B AF "Gm"G4 | fg g2 g2 fg | g2 g_b gf d2 | 
"F"ef fg fd c2 | ag fa gf d2 | "Gm"fg g2 g2 fg | g2 g_b gf d2 | ef fg fd _BA | 
"D7"c_B cF "Gm"G4 |: "Gm"F"Variation 3"G G2 G2 GA | _BA GB AG FD | FG G2 G2 G2 | 
_BA G"D7"c2A d2 | "Gm"FG G2 G2 GA | _BA GB AG F2 | dc _Bc3 cB | "D7"A_B AF "Gm"G4 :| [g4_B4D4G,4] [a2B2D2G,2] [_b2B2D2G,2] | 
z2 [a2_B2D2G,2] [g2B2D2G,2] FF | "F"FG A_B cd fg | ag fa gf d2 | "Gm"fg g2 g2 fg | 
g2 g_b gf d2 | ef fg fd _BA | "D7"c_B AF "Gm"G4 | [g4_B4D4G,4] [a2B2D2G,2] [_b2B2D2G,2] | 
z2 [a2_B2D2G,2] [g7/2B7/2D7/2G,7/2]^g/ | "F"a2 fg fd cd | fg af gf d2 | "Gm"fg g2 g2 fg | 
g2 g_b gf d2 | ef fg fd _BA | "D7"c_B AF "Gm"G2 ef | f2 fg fd _BA | "D7"c_B AF "Gm"G2 ef | 
f2 fg fd _BA | "D7"c_B AF "Gm"G4 | z4 d4 | a4 e'4 | [g8_B8D8G,8] | z8 | 


